icons/svg/video-layout-equal_20.svg

<svg width="20" height="20" viewBox="0 0 20 20" xmlns="http://www.w3.org/2000/svg"><title>format/video-layout-equal_20</title><path d="M19 9.5l-8.5 0 0-6.5 7 0c.827 0 1.5.673 1.5 1.5l0 5zm0 6c0 .827-.673 1.5-1.5 1.5l-7 0 0-6.5 8.5 0 0 5zm-9.5-6L1 9.5l0-5C1 3.673 1.673 3 2.5 3l7 0 0 6.5zm0 7.5l-7 0c-.827 0-1.5-.673-1.5-1.5l0-5 8.5 0 0 6.5zm8-15l-15 0C1.127 2 .003 3.123 0 4.496L0 4.5l0 11 0 .004C.003 16.877 1.127 18 2.5 18l15 0c1.375 0 2.5-1.125 2.5-2.5l0-11C20 3.125 18.875 2 17.5 2z" fill="#000" fill-rule="evenodd"/></svg>

<?xml version="1.0" encoding="utf-8"?>
<!-- Generator: Adobe Illustrator 25.0.0, SVG Export Plug-In . SVG Version: 6.00 Build 0)  -->
<svg version="1.1" id="Layer_1" xmlns="http://www.w3.org/2000/svg" xmlns:xlink="http://www.w3.org/1999/xlink" x="0px" y="0px"
	 viewBox="0 0 20 20" style="enable-background:new 0 0 20 20;" xml:space="preserve">
<style type="text/css">
	.st0{fill-rule:evenodd;clip-rule:evenodd;fill:#121212;}
</style>
<path class="st0" d="M19,9.5h-8.5V3h7C18.3,3,19,3.7,19,4.5V9.5z M19,15.5c0,0.8-0.7,1.5-1.5,1.5h-7v-6.5H19V15.5z M9.5,9.5H1v-5
	C1,3.7,1.7,3,2.5,3h7V9.5z M9.5,17h-7C1.7,17,1,16.3,1,15.5v-5h8.5V17z M17.5,2h-15C1.1,2,0,3.1,0,4.5v0v11v0C0,16.9,1.1,18,2.5,18
	h15c1.4,0,2.5-1.1,2.5-2.5v-11C20,3.1,18.9,2,17.5,2L17.5,2z"/>
</svg>
